static/images/community.svg

<?xml version="1.0" encoding="UTF-8"?>
<svg width="360px" height="261px" viewBox="0 0 360 261" version="1.1" xmlns="http://www.w3.org/2000/svg" xmlns:xlink="http://www.w3.org/1999/xlink">
    <!-- Generator: Sketch 51.3 (57544) - http://www.bohemiancoding.com/sketch -->
    <title>Community 2</title>
    <desc>Created with Sketch.</desc>
    <defs>
        <rect id="path-1" x="0" y="0" width="360" height="260"></rect>
        <rect id="path-3" x="0" y="0" width="360" height="260"></rect>
        <rect id="path-5" x="0" y="0" width="360" height="260"></rect>
        <rect id="path-7" x="0" y="0" width="360" height="260"></rect>
        <rect id="path-9" x="0" y="0" width="360" height="260"></rect>
        <rect id="path-11" x="0" y="0" width="360" height="260"></rect>
        <rect id="path-13" x="0" y="0" width="360" height="260"></rect>
    </defs>
    <g id="Page-1" stroke="none" stroke-width="1" fill="none" fill-rule="evenodd">
        <g id="Community-2">
            <g id="Community-Groups" transform="translate(0.000000, 0.432837)">
                <g id="Rectangle-3-Copy-11" fill="#F7D0BD" fill-rule="nonzero">
                    <rect id="path-1" x="0" y="0" width="360" height="260"></rect>
                </g>
                <g id="Path-2-Clipped">
                    <mask id="mask-2" fill="white">
                        <use xlink:href="#path-1"></use>
                    </mask>
                    <g id="path-1"></g>
                    <polygon id="Path-2" fill="#014A7F" fill-rule="nonzero" mask="url(#mask-2)" points="227.40414 223.567163 204 240.837317 211.971143 276.567163 261 247.841921"></polygon>
                </g>
                <g id="Path-8-Copy-Clipped">
                    <mask id="mask-4" fill="white">
                        <use xlink:href="#path-3"></use>
                    </mask>
                    <g id="path-1"></g>
                    <path d="M83.1591612,25.0692352 C67.1592322,38.8693403 66.949726,46.6549887 82.5306426,48.4261806 C105.902017,51.0829684 125.146815,15.3290048 113.501911,13.7410228 C105.738641,12.682368 95.6243915,16.4584388 83.1591612,25.0692352 Z" id="Path-8-Copy" fill="#375E34" fill-rule="nonzero" mask="url(#mask-4)"></path>
                </g>
                <g id="Path-10-Copy-Clipped">
                    <mask id="mask-6" fill="white">
                        <use xlink:href="#path-5"></use>
                    </mask>
                    <g id="path-1"></g>
                    <path d="M249.909457,-14.835225 C224.315218,-17.6333042 216.978457,-10.6057117 227.899172,6.2475525 C244.280244,31.5274488 239.184509,49.5671634 259.654517,49.5671634 C280.124526,49.5671634 315,28.6298291 315,14.1801677 C315,4.54706016 293.303152,-5.12473742 249.909457,-14.835225 Z" id="Path-10-Copy" fill="#C47A42" fill-rule="nonzero" mask="url(#mask-6)"></path>
                </g>
                <g id="Path-12-Copy-Clipped">
                    <mask id="mask-8" fill="white">
                        <use xlink:href="#path-7"></use>
                    </mask>
                    <g id="path-1"></g>
                    <path d="M137,35.9174925 C136.452436,27.1000826 133.296136,23.4593664 127.531098,24.9953439 C118.883541,27.2993101 123.783614,46.9737814 101.882953,60.288346 C79.9822928,73.6029105 52.4076935,50.2247973 57.6936099,30.3661775 C62.9795264,10.5075577 49.6850951,14.2108282 42.1780002,16.2109415 C34.6709054,18.2110547 12.7832009,56.8840618 37.3109658,73.0268807 C61.8387306,89.1696996 88.1749856,82.9572347 101.033604,79.1291681 C109.606017,76.5771237 121.594815,62.1732318 137,35.9174925 Z" id="Path-12-Copy" fill="#B6C3CE" fill-rule="nonzero" mask="url(#mask-8)"></path>
                </g>
                <g id="Path-9-Copy-Clipped">
                    <mask id="mask-10" fill="white">
                        <use xlink:href="#path-9"></use>
                    </mask>
                    <g id="path-1"></g>
                    <path d="M134.202714,269.743234 C184.944103,245.87505 198.40523,229.050063 174.586093,219.268273 C138.857389,204.595589 86.234527,226.305023 94.9612685,256.240711 C100.779096,276.197837 113.859578,280.698678 134.202714,269.743234 Z" id="Path-9-Copy" fill="#E1BA15" fill-rule="nonzero" mask="url(#mask-10)"></path>
                </g>
                <g id="Path-11-Copy-Clipped">
                    <mask id="mask-12" fill="white">
                        <use xlink:href="#path-11"></use>
                    </mask>
                    <g id="path-1"></g>
                    <polygon id="Path-11-Copy" fill="#DB500F" fill-rule="nonzero" mask="url(#mask-12)" points="302 176.107765 350.317046 188.567163 374 174.038198 340.764615 141.567163"></polygon>
                </g>
                <g id="Path-3-Clipped">
                    <mask id="mask-14" fill="white">
                        <use xlink:href="#path-13"></use>
                    </mask>
                    <g id="path-1"></g>
                    <path d="M-4.18119595,161.567163 L-15,191.188238 C-7.25223323,209.276302 1.66293426,216.868437 11.7455025,213.964642 C21.8280707,211.060847 32.5795699,196.672142 44,170.798525 L-4.18119595,161.567163 Z" id="Path-3" fill="#C47A42" fill-rule="nonzero" mask="url(#mask-14)"></path>
                </g>
            </g>
        </g>
    </g>
</svg>

<svg width="360" height="261" xmlns="http://www.w3.org/2000/svg" xmlns:xlink="http://www.w3.org/1999/xlink"><defs><path id="a" d="M0 0h360v260H0z"/><path id="c" d="M0 0h360v260H0z"/><path id="e" d="M0 0h360v260H0z"/><path id="g" d="M0 0h360v260H0z"/><path id="i" d="M0 0h360v260H0z"/><path id="k" d="M0 0h360v260H0z"/><path id="m" d="M0 0h360v260H0z"/></defs><g fill="none" fill-rule="evenodd"><path d="M0 .433h360v260H0z" fill="#F7D0BD" fill-rule="nonzero"/><g transform="translate(0 .433)"><mask id="b" fill="#fff"><use xlink:href="#a"/></mask><path fill="#014A7F" fill-rule="nonzero" mask="url(#b)" d="M227.404 223.567L204 240.837l7.971 35.73L261 247.842z"/></g><g transform="translate(0 .433)"><mask id="d" fill="#fff"><use xlink:href="#c"/></mask><path d="M83.16 25.07c-16 13.8-16.21 21.585-.63 23.356 23.372 2.657 42.617-33.097 30.972-34.685-7.763-1.059-17.878 2.717-30.343 11.328z" fill="#375E34" fill-rule="nonzero" mask="url(#d)"/></g><g transform="translate(0 .433)"><mask id="f" fill="#fff"><use xlink:href="#e"/></mask><path d="M249.91-14.835c-25.595-2.798-32.932 4.23-22.01 21.083 16.38 25.28 11.285 43.32 31.755 43.32S315 28.63 315 14.18c0-9.633-21.697-19.305-65.09-29.015z" fill="#C47A42" fill-rule="nonzero" mask="url(#f)"/></g><g transform="translate(0 .433)"><mask id="h" fill="#fff"><use xlink:href="#g"/></mask><path d="M137 35.917c-.548-8.817-3.704-12.458-9.469-10.922-8.647 2.304-3.747 21.979-25.648 35.293-21.9 13.315-49.475-10.063-44.19-29.922 5.287-19.858-8.008-16.155-15.515-14.155-7.507 2-29.395 40.673-4.867 56.816s50.864 9.93 63.723 6.102c8.572-2.552 20.56-16.956 35.966-43.212z" fill="#B6C3CE" fill-rule="nonzero" mask="url(#h)"/></g><g transform="translate(0 .433)"><mask id="j" fill="#fff"><use xlink:href="#i"/></mask><path d="M134.203 269.743c50.741-23.868 64.202-40.693 40.383-50.475-35.729-14.672-88.351 7.037-79.625 36.973 5.818 19.957 18.899 24.458 39.242 13.502z" fill="#E1BA15" fill-rule="nonzero" mask="url(#j)"/></g><g transform="translate(0 .433)"><mask id="l" fill="#fff"><use xlink:href="#k"/></mask><path fill="#DB500F" fill-rule="nonzero" mask="url(#l)" d="M302 176.108l48.317 12.46L374 174.037l-33.235-32.47z"/></g><g transform="translate(0 .433)"><mask id="n" fill="#fff"><use xlink:href="#m"/></mask><path d="M-4.181 161.567L-15 191.188c7.748 18.088 16.663 25.68 26.746 22.777C21.828 211.06 32.58 196.672 44 170.799l-48.181-9.232z" fill="#C47A42" fill-rule="nonzero" mask="url(#n)"/></g></g></svg>
